X: 0122
T: the Honey Moon - 8x32J
P: Alexander Hay
C: Nan Main
B: Miss Milligan's Miscellany v.1 #0122
B: Originally Ours v.1 p.174 #MMM-0122
Z: 2020 John Chambers <jc:trillian.mit.edu>
M: 6/8
L: 1/8
R: jig
K: G
%
d |\
"G"GFG "D/G"B2d | "C/Am"e2A "D7"A2d | "G"B2G GFG | "D"A3- A2D |\
"G"GFG "F/G7"g2=f | "Am"e2c c2A | "G#/E7"^GA^c "A7"a2g | "D"f3- f2 e/f/ ||
"G"gfe "D/G"dcB | "Am"e2A "E/Am"A2E | "Am"EAc "E/AM"e2g |"D"f3- "F#/D"f2e/f/ |\
"G"g2d "Am"e2A | "F#/D"d2A "G"B2G | "Am"E2e "D7"FdB | "G"G3 [g2B2] :|
